src/assets/img/icons/insurance.svg

<svg width="68" height="80" viewBox="0 0 68 80" fill="none" xmlns="http://www.w3.org/2000/svg">
<path d="M67.2445 20.5919C67.1488 18.4873 67.1488 16.4783 67.1488 14.4694C67.1488 12.843 65.9052 11.5994 64.2789 11.5994C52.3207 11.5994 43.2325 8.15546 35.675 0.789238C34.527 -0.263079 32.805 -0.263079 31.657 0.789238C24.0995 8.15546 15.0113 11.5994 3.05315 11.5994C1.42684 11.5994 0.183195 12.843 0.183195 14.4694C0.183195 16.4783 0.183195 18.4873 0.0875293 20.5919C-0.295131 40.6816 -0.869124 68.2332 32.7094 79.8087L33.666 80L34.6227 79.8087C68.1055 68.2332 67.6271 40.7773 67.2445 20.5919ZM31.37 48.4305C30.796 48.9088 30.1264 49.1958 29.3611 49.1958H29.2654C28.5001 49.1958 27.7348 48.8132 27.2564 48.2392L18.3596 38.3857L22.6645 34.559L29.6481 42.3079L45.1458 27.5755L49.0681 31.7848L31.37 48.4305Z" fill="#389AFF"/>
</svg>

<?xml version="1.0" encoding="utf-8"?>
<!-- Generator: Adobe Illustrator 24.0.0, SVG Export Plug-In . SVG Version: 6.00 Build 0)  -->
<svg version="1.1" id="Layer_1" xmlns="http://www.w3.org/2000/svg" xmlns:xlink="http://www.w3.org/1999/xlink" x="0px" y="0px"
	 viewBox="0 0 68 80" style="enable-background:new 0 0 68 80;" xml:space="preserve">
<style type="text/css">
	.st0{fill:#043F7C;}
</style>
<path class="st0" d="M67.2,20.6c-0.1-2.1-0.1-4.1-0.1-6.1c0-1.6-1.2-2.9-2.9-2.9c-12,0-21-3.4-28.6-10.8c-1.1-1.1-2.9-1.1-4,0
	C24.1,8.2,15,11.6,3.1,11.6c-1.6,0-2.9,1.2-2.9,2.9c0,2,0,4-0.1,6.1c-0.4,20.1-1,47.6,32.6,59.2l1,0.2l1-0.2
	C68.1,68.2,67.6,40.8,67.2,20.6z M31.4,48.4c-0.6,0.5-1.2,0.8-2,0.8h-0.1c-0.8,0-1.5-0.4-2-1l-8.9-9.9l4.3-3.8l7,7.7l15.5-14.7
	l3.9,4.2L31.4,48.4z"/>
</svg>
